X: 485
%
U:~=!turn!
T: Mrs. Macdonald, Ord.
C:Arranged by K.N. Macdonald
O:Scotland
B:Keith Norman MacDonald : "The Skye collection of the best reels & strathspeys extant" : 1887
Z:Ralph Palmer
R:Reel
M:C
L:1/8
K:A mix
B | A2 (AF) A2 DD | BA (AF) B2 B2 | dA (AG) FG AF | ED EF B2 A ::
z | u(B<d) AG FA A2 | u(B<d) AA B3 A | u(B<d) AG FA A2 | FE DE FB A :|


